X:1
T:Title
%%score 1 2
L:1/8
Q:1/4=108
M:6/8
K:D
V:1 treble nm="Grand Piano, Soprano"
V:2 bass nm="Choir Pad, Fargo, Hubert Platt Main"
V:1
 [FA]2 [DF] [Bd]2 [GB] | [FA]3 [DF]3 | [EG]2 [EG] [GB][FA][EG] | [DF]6 | [FA]2 [DF] [Bd]2 [GB] | %5
w: By~Hubert~Platt~Main,~1871 * * *|||||
 [FA]3 [DF]3 | [CE]2 [CA] [DB]2 [Ec] | [CA]6 | [Ec]2 [Ec] [Fd]2 [Ge] | [Fd]2 [FA] [FA]3 | %10
w: |||||
 [FA]2 [GB] [FA]2 [EG] | [DF]6 | [FA]2 [FA] [DF][EG][FA] | [GB]3 [Bd]3 | [FA]2 [FA] [EG][DF][CE] | %15
w: |||||
 D6 | [FA]2 [FA] [FA][GB][Ec] | [Fd]3 [FA]3 | [FA][GB][FA] [EG][DF][CE] | [DF]6 | %20
w: |||||
 [FA]2 [FA] [FA][GB][Ec] | [Fd]3 [FA]3 | [Af][Ge][Fd] [Ed]2 [Gc] | [Fd]6- | [Fd]3 z3 |] %25
w: |||||
V:2
 D,3 D,3 | D,3 D,3 | A,,3 A,,3 | D,6 | D,3 D,3 | D,3 D,3 | E,3 E,3 | A,,6 | A,,3 A,,3 | D,3 D,3 | %10
 A,,3 A,,3 | D,6 | D,3 D,3 | G,,3 G,,3 | A,,3 A,,3 | D,6 | [D,D]2 [D,D] [D,D]2 [D,A,] | %17
 [D,A,]3 [D,D]3 | [D,D]2 [F,D] A,2 [A,,A,] | [D,A,]6 | [D,D]2 [D,D] [D,D]2 [D,A,] | %21
 [D,A,]3 [D,D]3 | [D,D][E,A,][F,A,] [G,B,]2 A, | [D,A,]6- | [D,A,]3 z3 |] %25

